!!!!SEGMENT: pl-sa--5-a-i-5--002_anonim--valc.krn
!!!cenid: 18xx:646
!!!COM: Anonim
!!!COM-rismID: pe30004985
!!!CDT:
!!!CNT:
!!!OTL: Valc
!!!PDT:
!!!AGN: Secular; Waltz
!!!SMS-siglum: PL-SA
!!!SMS-shelfmark: 5/A I 5
!!!SMS-shelfwork: 002 W
!!!SMS-variant:
!!!SMS-altvar:
!!!NIFC-rismSourceID: 1001065398
!!!NIFC-rismChildID: 1001065398
!!!NIFC-islandoraID: none
!!!URL-pdf-islandora:
!!!URL-scan: https://bc.bdsandomierz.pl/dlibra/publication/1269/edition/1237/content @EN{Scan in the Sandomierz Diocese Digital Library} @PL{Skany w portalu Cyfrowa Biblioteka Diecezjalna w Sandomierzu}
!!!ONB-nifc: Str. 2
!!!AIN: 1 empty
!!!key:
**kern	**kern	**dynam
*part1	*part1	*part1
*staff2	*staff1	*
*Iempty	*Iempty	*
*I"Keyboard instrument	*	*
*I'keyb	*	*
*>[A,A,B,B,A,C,C]	*>[A,A,B,B,A,C,C]	*
*clefF4	*clefG2	*
*k[f#c#g#]	*k[f#c#g#]	*
*A:	*A:	*
*M3/4	*M3/4	*
*>A	*>A	*
!	!LO:TX:a:t=Valc	!
!LO:TX:a:t=P:problem=znaki przy kluczu zapisane jak w kluczu wiolinowym	!LO:TX:a:t=P:problem=w obu rękach znaki przy kluczu zapisane bardzo lekko, są słabo widoczne. Znajdują się przed oznaczeniami metrum	!
4r	8cc#\L	.
.	8dd\J	.
=1	=1	=1
!	!LO:TUP:a	!
4AA/	12ee\L	.
.	12ff#\	.
.	12ee\J	.
4c#\ 4A\ 4E\	8dd#X\L	.
.	8ee\	.
4c#\ 4A\ 4E\	8aa\	.
.	8cc#\J	.
=2	=2	=2
*rep	*	*
!LO:TX:a:t=P:problem=w całym utworze nad znakiem repetycji brak '2'	!	!
4AA/	8ee/L	.
.	8a/	.
4c#\ 4A\ 4E\	8cc#/	.
.	8e/	.
4c#\ 4A\ 4E\	8a/	.
.	8cc#/J	.
*Xrep	*	*
=3	=3	=3
4E\	8dd/L	.
.	8e/	.
4d\ 4B\ 4G#\	8g#/	.
.	8b/	.
4d\ 4B\ 4G#\	8ee/	.
.	8dd/J	.
=4	=4	=4
4AA/	8cc#\L	.
.	8a\	.
4c#\ 4A\ 4E\	8cc#\	.
.	8ee\	.
4c#\ 4A\ 4E\	8aa\	.
.	8ccc#\J	.
=5	=5	=5
!	!LO:TUP:a	!
4AA/	12eee\L	f
.	12fff#\	.
.	12eee\J	.
4e\ 4c#\ 4A\	8ccc#X\L	.
!	!LO:TX:a:t=e	!
.	8eee\	.
4e\ 4c#\ 4A\	8aaa\	.
.	8ccc#\J	.
=6	=6	=6
*rep	*	*
4AA/	8eee\L	.
.	8aa\	.
4e\ 4c#\ 4A\	8ccc#\	.
.	8ee\	.
4e\ 4c#\ 4A\	8aa\	.
.	8ccc#\J	.
*Xrep	*	*
=7	=7	=7
4E\	8ddd\L	.
.	8bb\	.
4e\ 4d\ 4B\ 4G#\	8gg#\	.
.	8ee\	.
4e\ 4d\ 4B\ 4G#\	8fff#\	.
.	8eee\J	.
=	=	=
*	*2\right	*
!	!LO:TX:a:t=Fin	!
4e\ 4c#\ 4A\	2aa\	.
!LO:TX:a:t=P:problem=fermaty nad kreskami taktowymi	!	!
4AA/	.	.
!!LO:LB:g=original
=8;:|!	=8;:|!	=8:|!
*>B	*>B	*
4r	8gg#\L	.
.	8aa\J	.
=9	=9	=9
4BB/	8aa#X\L	.
.	8bb\	.
4B\ 4A\ 4F#\ 4D#X\	8aan\	.
.	8b\	.
4B\ 4A\ 4F#\ 4D#\	8dd#X\	.
.	8ff#\J	.
=10	=10	=10
4E\	8aa\L	.
.	8gg#\	.
4B\ 4G#\	8b\	.
.	8ee\	.
4B\ 4G#\	8g#\	.
.	8b\J	.
=11	=11	=11
4BB/	8ee\L	.
.	8dd#X\	.
4B\ 4A\ 4F#\ 4D#X\	8f#\	.
.	8dd#\	.
4B\ 4A\ 4F#\ 4D#\	8a\	.
.	8b\J	.
=12	=12	=12
4E\	8ff#\L	.
.	8ee\	.
4B\ 4G#\	8g#\	.
.	8b\	.
4B\ 4G#\	8ee\	.
.	8gg#\J	.
=13	=13	=13
4BB/	8aa#X\L	.
.	8bb\	.
!LO:SIC:s=4d#\ 4B\ 4A\ 4F#\:v	!	!
4d\ 4B\ 4A\ 4F#\	8aan\	.
.	8b\	.
!LO:SIC:s=4d#\ 4B\ 4A\ 4F#\:v	!LO:SIC:s=8dd#\:v	!
4d\ 4B\ 4A\ 4F#\	8dd\	.
.	8ff#\J	.
=14	=14	=14
4E\	8aa\L	.
.	8gg#\	.
4e\ 4B\ 4G#\	8b\	.
.	8ee\	.
4e\ 4B\ 4G#\	8g#\	.
.	8b\J	.
=15	=15	=15
4BB/	8ee\L	.
.	8dd#X\	.
!LO:CL:ed	!	!
*clefG2	*	*
4a/ 4f#/ 4B/	8cc#\	.
.	8b\	.
4a/ 4f#/ 4B/	8aa\	.
.	8dd#\J	.
=	=	=
!	!LO:TX:b:t=D.C. Vals	!
4g#/ 4e/	2ee\	.
!LO:SIC:s=4E/:v	!	!
4F#/	.	.
!LO:CL:ed	!	!
*clefF4	*	*
!!LO:LB:g=original
=16:|!	=16:|!	=16:|!
*>C	*>C	*
*k[f#c#]	*k[f#c#]	*
*D:	*D:	*
*M3/4	*M3/4	*
!LO:TX:a:t=P:problem=kasownik g przy kluczu	!LO:TX:a:t=P:problem=kasownik g przy kluczu	!
!	!LO:TX:a:t=Trio	!
!	!LO:TX:a:t=P:problem=brak znaków i oznaczenia metrum na końcu poprzedniej linii	!
4r	8ff#\L	.
.	8gg\J	.
=17	=17	=17
4D\	4aa\	.
4d\ 4A\ 4F#\	8bb\L	.
.	8ccc#\	.
4d\ 4A\ 4F#\	(8ddd\	.
.	8eee\J)	.
=18	=18	=18
.	8qqddd/L	.
.	8qqeee/J	.
*rep	*	*
4D\	4fff#\	.
4d\ 4A\ 4F#\	(8eee\L	.
.	8ddd\	.
4d\ 4A\ 4F#\	8ccc#\	.
.	8bb\J)	.
*Xrep	*	*
=19	=19	=19
4AA/	(8bb\L	.
.	8aa\)	.
4c#\ 4A\ 4G\ 4E\	8a\	.
.	8cc#\J	.
4c#\ 4A\ 4G\ 4E\	4ee\	.
=20	=20	=20
4D\	8bb\L	.
.	8aa\	.
4d\ 4A\ 4F#\	8a\	.
.	8dd\J	.
4d\ 4A\ 4F#\	4ff#\	.
=21	=21	=21
*tremolo	*	*
!LO:TX:a:t=P:problem=2 zamiast 2.; 2\right	!	!
8B\L 8F#\ 8D\	4aa\	.
8A	.	.
8B\ 8F#\ 8D\	(8bb\L	.
8A\	8ccc#\	.
8B\ 8F#\ 8D\	8ddd\	.
8A\J	8eee\J)	.
*Xtremolo	*	*
=22	=22	=22
.	8qqddd/L	.
.	8qqeee/J	.
*rep	*	*
*tremolo	*	*
8B\L 8F#\ 8D\	4fff#\	.
8A\	.	.
8B\ 8F#\ 8D\	8eee\L	.
8A\	8ddd\	.
8B\ 8F#\ 8D\	8ccc#\	.
8A\J	8bb\J	.
*Xtremolo	*	*
*Xrep	*	*
=23	=23	=23
8G\L 8C#\	8gg#X\L	.
8A\	8aa\	.
8G\ 8C#\	8ccc#\	.
8A\	8bb\	.
8G\ 8C#\	8ggn\	.
8A\J	8ee\J	.
=24	=24	=24
4F#\ 4D\	2dd\	.
4DD/	.	.
=:|!	=:|!	=:|!
*-	*-	*-
!!!system-decoration: {(s1,s2)}
!!!ENC: Zofia Niedbalska
!!!END: 2020-12-16
!!!ENC: Marcin Jachim
!!!END: 2020-06-18
!!!YEC: Copyright 2022 Narodowy Instytut Fryderyka Chopina (https://polishscores.org)
!!!YEM: License CC-BY-4.0 (https://creativecommons.org/licenses/by/4.0)
